icons/eye.svg

<?xml version="1.0" encoding="UTF-8"?><svg xmlns="http://www.w3.org/2000/svg" viewBox="0 0 50 50"><g id="uuid-9f287520-c98e-4a5d-af95-e07b86786001"><g><path d="M24.62,11.2C11.54,11.2,.65,20.95,.65,24.63c0,3.29,10.79,13.43,23.98,13.43s23.98-9.67,23.98-13.43-10.89-13.43-23.98-13.43Zm7.07,1.99c1.57,1.76,2.43,4.03,2.43,6.39,0,5.31-4.32,9.63-9.63,9.63-2.5,0-4.88-.96-6.68-2.69-1.9-1.83-2.95-4.3-2.95-6.94,0-2.29,.81-4.49,2.29-6.23,4.88-1.39,9.67-1.45,14.55-.16Zm-7.07,23.86C11.69,37.05,1.65,27.14,1.65,24.63c0-1.96,5.58-8.04,13.99-10.91-1.15,1.73-1.77,3.76-1.77,5.86,0,2.92,1.16,5.63,3.26,7.66,1.99,1.92,4.61,2.97,7.37,2.97,5.86,0,10.63-4.77,10.63-10.63,0-2.15-.66-4.22-1.85-5.97,8.61,2.81,14.34,9.03,14.34,11.02,0,2.52-10.05,12.43-22.98,12.43Z"/><path d="M24.36,25.48c3.22,0,5.83-2.62,5.83-5.83s-2.62-5.83-5.83-5.83-5.83,2.62-5.83,5.83,2.62,5.83,5.83,5.83Zm0-10.66c2.66,0,4.83,2.17,4.83,4.83s-2.17,4.83-4.83,4.83-4.83-2.17-4.83-4.83,2.17-4.83,4.83-4.83Z"/><path d="M22.04,14.31c1.17-.19,2.37-.31,3.61-.34-.41-.09-.84-.15-1.28-.15-.83,0-1.61,.18-2.33,.49Z" fill="none"/><path d="M18.53,19.65c0,2.89,2.11,5.28,4.87,5.75-.6-.41-1.08-.96-1.45-1.58-1.44-.84-2.42-2.38-2.42-4.16,0-2.66,2.17-4.83,4.83-4.83,1.78,0,3.32,.98,4.16,2.42,.63,.37,1.18,.85,1.58,1.45-.39-2.34-2.17-4.21-4.47-4.72-1.24,.03-2.44,.15-3.61,.34-2.06,.9-3.51,2.96-3.51,5.34Z"/><path d="M28.53,17.24c.41,.71,.67,1.53,.67,2.41,0,2.66-2.17,4.83-4.83,4.83-.88,0-1.7-.26-2.41-.67,.37,.63,.85,1.18,1.45,1.58,.31,.05,.63,.09,.96,.09,3.22,0,5.83-2.62,5.83-5.83,0-.33-.03-.65-.09-.96-.41-.6-.96-1.08-1.58-1.45Z"/></g></g><g id="uuid-8ac004ba-27da-476b-a83b-2517c3dfb5a5"><text transform="translate(.87 55.03)" font-family="Roboto-Regular, Roboto" font-size="6"><tspan x="0" y="0" letter-spacing="0em">ey</tspan><tspan x="5.94" y="0">e</tspan></text></g></svg>

<svg xmlns="http://www.w3.org/2000/svg" viewBox="0 0 50 50"><g id="a8165cf4-18e0-4bbb-bc6b-767773b1408d" data-name="ICONS"><path d="M24.62,11.2c-13.08,0-24,9.75-24,13.43,0,3.28,10.78,13.42,24,13.42,12.58,0,24-9.66,24-13.42S37.71,11.2,24.62,11.2Zm7.07,2a9.63,9.63,0,1,1-14.54.16A26.8,26.8,0,0,1,31.69,13.19ZM24.62,37.05c-12.93,0-23-9.91-23-12.42,0-2,5.57-8,14-10.91a10.62,10.62,0,1,0,17.63-.12c8.61,2.82,14.33,9,14.33,11C47.6,27.14,37.56,37.05,24.62,37.05Z"/><path d="M24.36,25.48a5.83,5.83,0,1,0-5.83-5.83A5.84,5.84,0,0,0,24.36,25.48Zm0-10.66a4.83,4.83,0,1,1-4.83,4.83A4.84,4.84,0,0,1,24.36,14.82Z"/><path d="M22,14.31a28,28,0,0,1,3.6-.35,6,6,0,0,0-1.28-.14A5.64,5.64,0,0,0,22,14.31Z" fill="none"/><path d="M18.53,19.65A5.84,5.84,0,0,0,23.4,25.4,4.91,4.91,0,0,1,22,23.81a4.82,4.82,0,1,1,6.58-6.57,4.87,4.87,0,0,1,1.58,1.45A5.85,5.85,0,0,0,25.64,14a28,28,0,0,0-3.6.35A5.83,5.83,0,0,0,18.53,19.65Z"/><path d="M28.53,17.24a4.8,4.8,0,0,1-4.17,7.24A4.72,4.72,0,0,1,22,23.81,4.91,4.91,0,0,0,23.4,25.4a6.22,6.22,0,0,0,1,.08,5.84,5.84,0,0,0,5.84-5.83,6,6,0,0,0-.09-1A4.87,4.87,0,0,0,28.53,17.24Z"/></g><g id="ae0e2038-dabf-4d2d-9082-e5725164ee8d" data-name="LABELS"><text transform="translate(0.87 55.03)" font-size="6" font-family="Roboto-Regular, Roboto"><tspan letter-spacing="-0.01em">ey</tspan><tspan x="5.94" y="0">e</tspan></text></g></svg>
